!!!COM: Music21
!!!OTL: strathspey_Neilly-OBoyles-Highland
!!!OMV: strathspey_Neilly-OBoyles-Highland
**kern
*clefG2
*k[f#c#]
*M4/4
=1
8ff#
=
8eeL
8aaJ
8aaL
8ggJ
4.a 4.ee
8cc#
=
8ddL
8cc#J
8bL
8aJ
8bL
8cc#J
8ddL
8ff#J
=
8eeL
8aaJ
8aaL
8ggJ
4a 4ee
8eeL
8ff#J
=
8gg
8ff#L
8ggJ
8dd
8b
8aL
8aJ
8ryy
=||
*M4/4
8ff#
!!linebreak:original
=
8eeL
8aaJ
8aaL
8ggJ
4.a 4.ee
8cc#
=
8ddL
8cc#J
8bL
8aJ
8bL
8cc#J
8ddL
8ff#J
=
8eeL
8aaJ
8aaL
8ggJ
4a 4ee
8eeL
8ff#J
=
8gg
8ff#L
8ggJ
8dd
8b
8aL
8aJ
8ryy
=||
8b
2..ryy
=
8cc#L
8aJ
8cc#L
8aJ
8ddL
8bJ
8ddL
8bJ
!!linebreak:original
=
8cc#L
8aJ
16aLL
16aJ
8aJ
8cc#L
8eeJ
8aaL
8eeJ
=
8cc#L
8aJ
8cc#L
8aJ
8ddL
8cc#J
8ddL
8ff#J
=
8ee
8cc#L
8aaJ
8cc#
8b
8aL
8aJ
8ryy
=||
8b
2..ryy
=
8cc#L
8aJ
8cc#L
8aJ
8ddL
8bJ
8ddL
8bJ
!!linebreak:original
=
8cc#L
8aJ
16aLL
16aJ
8aJ
8cc#L
8eeJ
8aaL
8eeJ
=
8cc#L
8aJ
8cc#L
8aJ
8ddL
8cc#J
8ddL
8ff#J
=
8ee
8cc#L
8aaJ
8cc#
8b
8aL
8aJ
8ryy
=||
*-
